icons/ellipsis-h.svg

<svg xmlns="http://www.w3.org/2000/svg" width="96" height="96"><path d="M4 48c0-3.2 1.3-6.2 3.5-8.5C9.8 37.3 12.8 36 16 36s6.2 1.3 8.5 3.5c2.2 2.3 3.5 5.3 3.5 8.5s-1.3 6.2-3.5 8.5C22.2 58.7 19.2 60 16 60s-6.2-1.3-8.5-3.5C5.3 54.2 4 51.2 4 48zm8 0c0-1.1.4-2.1 1.2-2.8.7-.8 1.7-1.2 2.8-1.2 1.1 0 2.1.4 2.8 1.2.8.7 1.2 1.7 1.2 2.8 0 1.1-.4 2.1-1.2 2.8-.7.8-1.7 1.2-2.8 1.2-1.1 0-2.1-.4-2.8-1.2-.8-.7-1.2-1.7-1.2-2.8zm24 0c0-3.2 1.3-6.2 3.5-8.5 2.3-2.2 5.3-3.5 8.5-3.5s6.2 1.3 8.5 3.5c2.2 2.3 3.5 5.3 3.5 8.5s-1.3 6.2-3.5 8.5C54.2 58.7 51.2 60 48 60s-6.2-1.3-8.5-3.5C37.3 54.2 36 51.2 36 48zm8 0c0-1.1.4-2.1 1.2-2.8.7-.8 1.7-1.2 2.8-1.2 1.1 0 2.1.4 2.8 1.2.8.7 1.2 1.7 1.2 2.8 0 1.1-.4 2.1-1.2 2.8-.7.8-1.7 1.2-2.8 1.2-1.1 0-2.1-.4-2.8-1.2-.8-.7-1.2-1.7-1.2-2.8zm24 0c0-3.2 1.3-6.2 3.5-8.5 2.3-2.2 5.3-3.5 8.5-3.5s6.2 1.3 8.5 3.5c2.2 2.3 3.5 5.3 3.5 8.5s-1.3 6.2-3.5 8.5C86.2 58.7 83.2 60 80 60s-6.2-1.3-8.5-3.5C69.3 54.2 68 51.2 68 48zm8 0c0-1.1.4-2.1 1.2-2.8.7-.8 1.7-1.2 2.8-1.2 1.1 0 2.1.4 2.8 1.2.8.7 1.2 1.7 1.2 2.8 0 1.1-.4 2.1-1.2 2.8-.7.8-1.7 1.2-2.8 1.2-1.1 0-2.1-.4-2.8-1.2-.8-.7-1.2-1.7-1.2-2.8z" fill-rule="evenodd" fill="#454545"/></svg>

<?xml version="1.0" standalone="no"?><!-- Generator: Gravit.io --><svg xmlns="http://www.w3.org/2000/svg" xmlns:xlink="http://www.w3.org/1999/xlink" width="96" height="96"><path d=" M 4 48 C 4 44.8 5.3 41.8 7.5 39.5 C 9.8 37.3 12.8 36 16 36 C 19.2 36 22.2 37.3 24.5 39.5 C 26.7 41.8 28 44.8 28 48 C 28 51.2 26.7 54.2 24.5 56.5 C 22.2 58.7 19.2 60 16 60 C 12.8 60 9.8 58.7 7.5 56.5 C 5.3 54.2 4 51.2 4 48 Z  M 12 48 C 12 46.9 12.4 45.9 13.2 45.2 C 13.9 44.4 14.9 44 16 44 C 17.1 44 18.1 44.4 18.8 45.2 C 19.6 45.9 20 46.9 20 48 C 20 49.1 19.6 50.1 18.8 50.8 C 18.1 51.6 17.1 52 16 52 C 14.9 52 13.9 51.6 13.2 50.8 C 12.4 50.1 12 49.1 12 48 Z  M 36 48 C 36 44.8 37.3 41.8 39.5 39.5 C 41.8 37.3 44.8 36 48 36 C 51.2 36 54.2 37.3 56.5 39.5 C 58.7 41.8 60 44.8 60 48 C 60 51.2 58.7 54.2 56.5 56.5 C 54.2 58.7 51.2 60 48 60 C 44.8 60 41.8 58.7 39.5 56.5 C 37.3 54.2 36 51.2 36 48 Z  M 44 48 C 44 46.9 44.4 45.9 45.2 45.2 C 45.9 44.4 46.9 44 48 44 C 49.1 44 50.1 44.4 50.8 45.2 C 51.6 45.9 52 46.9 52 48 C 52 49.1 51.6 50.1 50.8 50.8 C 50.1 51.6 49.1 52 48 52 C 46.9 52 45.9 51.6 45.2 50.8 C 44.4 50.1 44 49.1 44 48 Z  M 68 48 C 68 44.8 69.3 41.8 71.5 39.5 C 73.8 37.3 76.8 36 80 36 C 83.2 36 86.2 37.3 88.5 39.5 C 90.7 41.8 92 44.8 92 48 C 92 51.2 90.7 54.2 88.5 56.5 C 86.2 58.7 83.2 60 80 60 C 76.8 60 73.8 58.7 71.5 56.5 C 69.3 54.2 68 51.2 68 48 Z  M 76 48 C 76 46.9 76.4 45.9 77.2 45.2 C 77.9 44.4 78.9 44 80 44 C 81.1 44 82.1 44.4 82.8 45.2 C 83.6 45.9 84 46.9 84 48 C 84 49.1 83.6 50.1 82.8 50.8 C 82.1 51.6 81.1 52 80 52 C 78.9 52 77.9 51.6 77.2 50.8 C 76.4 50.1 76 49.1 76 48 Z " fill-rule="evenodd" fill="#454545" stroke="none"/><mask id="_mask_MhewfNPlTWdelnZudtM0pHcSzbPx02fg"><path d=" M 4 48 C 4 44.8 5.3 41.8 7.5 39.5 C 9.8 37.3 12.8 36 16 36 C 19.2 36 22.2 37.3 24.5 39.5 C 26.7 41.8 28 44.8 28 48 C 28 51.2 26.7 54.2 24.5 56.5 C 22.2 58.7 19.2 60 16 60 C 12.8 60 9.8 58.7 7.5 56.5 C 5.3 54.2 4 51.2 4 48 Z  M 12 48 C 12 46.9 12.4 45.9 13.2 45.2 C 13.9 44.4 14.9 44 16 44 C 17.1 44 18.1 44.4 18.8 45.2 C 19.6 45.9 20 46.9 20 48 C 20 49.1 19.6 50.1 18.8 50.8 C 18.1 51.6 17.1 52 16 52 C 14.9 52 13.9 51.6 13.2 50.8 C 12.4 50.1 12 49.1 12 48 Z  M 36 48 C 36 44.8 37.3 41.8 39.5 39.5 C 41.8 37.3 44.8 36 48 36 C 51.2 36 54.2 37.3 56.5 39.5 C 58.7 41.8 60 44.8 60 48 C 60 51.2 58.7 54.2 56.5 56.5 C 54.2 58.7 51.2 60 48 60 C 44.8 60 41.8 58.7 39.5 56.5 C 37.3 54.2 36 51.2 36 48 Z  M 44 48 C 44 46.9 44.4 45.9 45.2 45.2 C 45.9 44.4 46.9 44 48 44 C 49.1 44 50.1 44.4 50.8 45.2 C 51.6 45.9 52 46.9 52 48 C 52 49.1 51.6 50.1 50.8 50.8 C 50.1 51.6 49.1 52 48 52 C 46.9 52 45.9 51.6 45.2 50.8 C 44.4 50.1 44 49.1 44 48 Z  M 68 48 C 68 44.8 69.3 41.8 71.5 39.5 C 73.8 37.3 76.8 36 80 36 C 83.2 36 86.2 37.3 88.5 39.5 C 90.7 41.8 92 44.8 92 48 C 92 51.2 90.7 54.2 88.5 56.5 C 86.2 58.7 83.2 60 80 60 C 76.8 60 73.8 58.7 71.5 56.5 C 69.3 54.2 68 51.2 68 48 Z  M 76 48 C 76 46.9 76.4 45.9 77.2 45.2 C 77.9 44.4 78.9 44 80 44 C 81.1 44 82.1 44.4 82.8 45.2 C 83.6 45.9 84 46.9 84 48 C 84 49.1 83.6 50.1 82.8 50.8 C 82.1 51.6 81.1 52 80 52 C 78.9 52 77.9 51.6 77.2 50.8 C 76.4 50.1 76 49.1 76 48 Z " fill-rule="evenodd" fill="white" stroke="none"/></mask><path d=" M 4 48 C 4 44.8 5.3 41.8 7.5 39.5 C 9.8 37.3 12.8 36 16 36 C 19.2 36 22.2 37.3 24.5 39.5 C 26.7 41.8 28 44.8 28 48 C 28 51.2 26.7 54.2 24.5 56.5 C 22.2 58.7 19.2 60 16 60 C 12.8 60 9.8 58.7 7.5 56.5 C 5.3 54.2 4 51.2 4 48 Z  M 12 48 C 12 46.9 12.4 45.9 13.2 45.2 C 13.9 44.4 14.9 44 16 44 C 17.1 44 18.1 44.4 18.8 45.2 C 19.6 45.9 20 46.9 20 48 C 20 49.1 19.6 50.1 18.8 50.8 C 18.1 51.6 17.1 52 16 52 C 14.9 52 13.9 51.6 13.2 50.8 C 12.4 50.1 12 49.1 12 48 Z  M 36 48 C 36 44.8 37.3 41.8 39.5 39.5 C 41.8 37.3 44.8 36 48 36 C 51.2 36 54.2 37.3 56.5 39.5 C 58.7 41.8 60 44.8 60 48 C 60 51.2 58.7 54.2 56.5 56.5 C 54.2 58.7 51.2 60 48 60 C 44.8 60 41.8 58.7 39.5 56.5 C 37.3 54.2 36 51.2 36 48 Z  M 44 48 C 44 46.9 44.4 45.9 45.2 45.2 C 45.9 44.4 46.9 44 48 44 C 49.1 44 50.1 44.4 50.8 45.2 C 51.6 45.9 52 46.9 52 48 C 52 49.1 51.6 50.1 50.8 50.8 C 50.1 51.6 49.1 52 48 52 C 46.9 52 45.9 51.6 45.2 50.8 C 44.4 50.1 44 49.1 44 48 Z  M 68 48 C 68 44.8 69.3 41.8 71.5 39.5 C 73.8 37.3 76.8 36 80 36 C 83.2 36 86.2 37.3 88.5 39.5 C 90.7 41.8 92 44.8 92 48 C 92 51.2 90.7 54.2 88.5 56.5 C 86.2 58.7 83.2 60 80 60 C 76.8 60 73.8 58.7 71.5 56.5 C 69.3 54.2 68 51.2 68 48 Z  M 76 48 C 76 46.9 76.4 45.9 77.2 45.2 C 77.9 44.4 78.9 44 80 44 C 81.1 44 82.1 44.4 82.8 45.2 C 83.6 45.9 84 46.9 84 48 C 84 49.1 83.6 50.1 82.8 50.8 C 82.1 51.6 81.1 52 80 52 C 78.9 52 77.9 51.6 77.2 50.8 C 76.4 50.1 76 49.1 76 48 Z " fill-rule="evenodd" fill="none" stroke="none" stroke-width="16" mask="url(#_mask_MhewfNPlTWdelnZudtM0pHcSzbPx02fg)"/></svg>
